images/svg/benefits/benefit-1.svg

<svg width="106" height="106" viewBox="0 0 106 106" fill="none" xmlns="http://www.w3.org/2000/svg">
<g id="Group 17">
<g id="Bitmap">
<circle id="Mask" cx="53" cy="53" r="53" fill="#36536B"/>
<mask id="mask0_0_5240" style="mask-type:alpha" maskUnits="userSpaceOnUse" x="0" y="0" width="106" height="106">
<circle id="Mask_2" cx="53" cy="53" r="53" fill="white"/>
</mask>
<g mask="url(#mask0_0_5240)">
</g>
</g>
<path id="Combined Shape" fill-rule="evenodd" clip-rule="evenodd" d="M59.9937 31.3795L56.8907 40.4234H39.2177L36.1144 31.3795L41.2573 28L44.6558 30.2334L48.0542 28L51.4526 30.2334L54.8511 28L59.9937 31.3795ZM39.801 43.3364H56.3074V46.2494H39.801V43.3364ZM54.9482 60.2311H62.3518C62.199 59.8041 62.0242 59.3816 61.8258 58.9652L57.1577 49.1624H38.9508L34.2826 58.9652C32.3374 63.0501 32.6181 67.7732 35.0339 71.5987C37.4493 75.4245 41.5926 77.7087 46.1174 77.7087H49.991C50.6805 77.7087 51.3635 77.6549 52.0352 77.5513V68.9701H54.9482V60.2311ZM51.6631 64.8852C51.4796 65.258 51.238 65.5637 50.9384 65.8015C50.6388 66.0397 50.2967 66.2194 49.9121 66.3408C49.5276 66.4618 49.1294 66.5361 48.7179 66.563V68.1934H47.645V66.5361C47.0276 66.4823 46.4147 66.3609 45.8068 66.1724C45.1985 65.9835 44.6531 65.7458 44.1703 65.4579L45.2971 63.154C45.5387 63.3068 45.7981 63.4505 46.0753 63.5852C46.3078 63.702 46.5782 63.8165 46.8869 63.9288C47.1956 64.0414 47.5107 64.1195 47.8327 64.1643V62.9788C47.5555 62.9071 47.2783 62.8218 47.001 62.7228C46.5805 62.579 46.2183 62.4243 45.9145 62.2578C45.6103 62.0917 45.3597 61.9032 45.1632 61.692C44.9664 61.4811 44.8211 61.2407 44.7271 60.9714C44.633 60.7018 44.586 60.3919 44.586 60.0415C44.586 59.5564 44.6668 59.1275 44.8276 58.7547C44.9888 58.3823 45.2076 58.0607 45.4848 57.7914C45.762 57.5218 46.0863 57.3064 46.4576 57.1444C46.8289 56.9829 47.2244 56.8797 47.645 56.8346V55.4738H48.7183V56.8482C49.0133 56.8839 49.2993 56.9381 49.5769 57.0102C49.8541 57.0818 50.12 57.1649 50.3752 57.2589C50.6301 57.3534 50.8694 57.4524 51.0927 57.5555C51.3165 57.6591 51.522 57.7558 51.7102 57.8453L50.583 60.0146C50.3862 59.889 50.1715 59.7722 49.9391 59.6641C49.7422 59.5655 49.5208 59.4734 49.275 59.388C49.0289 59.3027 48.7808 59.2379 48.5302 59.1927V60.4052C48.6109 60.4238 48.6959 60.448 48.7854 60.4795C48.8745 60.511 48.9686 60.5402 49.0672 60.5671C49.5052 60.7018 49.9008 60.85 50.2542 61.0116C50.6077 61.1735 50.9096 61.3643 51.1599 61.5843C51.4102 61.8046 51.6028 62.072 51.7367 62.386C51.871 62.7008 51.9381 63.0823 51.9381 63.5317C51.9381 64.0615 51.8463 64.5128 51.6631 64.8852ZM47.2961 59.6099C47.2961 59.7449 47.3408 59.8549 47.4303 59.9402C47.5198 60.0259 47.6537 60.1044 47.8327 60.1761V59.1522C47.4751 59.1969 47.2961 59.3497 47.2961 59.6099ZM48.5302 63.2078V64.2049C48.7452 64.187 48.8969 64.1419 48.9864 64.0702C49.0759 63.9982 49.1207 63.9041 49.1207 63.7873C49.1207 63.6614 49.0672 63.5514 48.9595 63.457C48.8521 63.3629 48.7092 63.2799 48.5302 63.2078ZM57.8612 63.1441H72.9109V68.9701H57.8612V63.1441ZM69.9982 71.8827H54.9482V77.7087H69.9982V71.8827Z" fill="#EDF3F8"/>
</g>
</svg>

<svg width="106" height="106" fill="none" xmlns="http://www.w3.org/2000/svg"><circle cx="53" cy="53" r="53" fill="#36536B"/><mask id="a" style="mask-type:alpha" maskUnits="userSpaceOnUse" x="0" y="0" width="106" height="106"><circle cx="53" cy="53" r="53" fill="#fff"/></mask><path fill-rule="evenodd" clip-rule="evenodd" d="m59.994 31.38-3.103 9.043H39.218l-3.104-9.044L41.257 28l3.399 2.233L48.054 28l3.399 2.233L54.85 28l5.143 3.38zM39.8 43.335h16.506v2.913H39.801v-2.913zm15.147 16.895h7.404c-.153-.427-.328-.85-.526-1.266l-4.668-9.803H38.95l-4.668 9.803a13.04 13.04 0 0 0 .75 12.634 13.04 13.04 0 0 0 11.084 6.11h3.874c.69 0 1.373-.054 2.044-.158v-8.58h2.913v-8.74zm-3.285 4.654a2.634 2.634 0 0 1-.725.916 3.16 3.16 0 0 1-1.026.54 5.065 5.065 0 0 1-1.194.222v1.63h-1.073v-1.657a8.76 8.76 0 0 1-1.838-.364 7.56 7.56 0 0 1-1.637-.714l1.127-2.304c.242.153.501.296.778.431.233.117.503.231.812.344.309.112.624.19.946.235V62.98a9.69 9.69 0 0 1-.832-.256 6.957 6.957 0 0 1-1.087-.465 2.937 2.937 0 0 1-.75-.566 2.023 2.023 0 0 1-.437-.72 2.816 2.816 0 0 1-.141-.93c0-.486.08-.915.242-1.287.16-.373.38-.694.657-.964s.601-.485.973-.647a4.036 4.036 0 0 1 1.187-.31v-1.36h1.073v1.374c.295.036.581.09.859.162.277.072.543.155.798.249s.494.193.718.297c.223.103.429.2.617.29l-1.127 2.169a5.534 5.534 0 0 0-.644-.35 5.565 5.565 0 0 0-.664-.277 4.957 4.957 0 0 0-.745-.195v1.212c.08.019.166.043.255.075.09.031.184.06.282.087.438.135.834.283 1.187.445.354.161.656.352.906.572.25.22.443.488.577.802.134.315.201.696.201 1.146 0 .53-.092.98-.275 1.353zm-4.367-5.275c0 .135.045.245.134.33.09.086.224.164.403.236v-1.024c-.358.045-.537.198-.537.458zm1.234 3.598v.997c.215-.018.367-.063.456-.135a.345.345 0 0 0 .135-.283.427.427 0 0 0-.162-.33 1.496 1.496 0 0 0-.429-.25zm9.331-.064h15.05v5.826H57.86v-5.826zm12.137 8.739h-15.05v5.826h15.05v-5.826z" fill="#EDF3F8"/></svg>
